X:1
T:Title
%%score { 1 | 2 }
L:1/8
Q:1/4=100
M:4/4
K:Eb
V:1 treble nm="Grand Piano"
V:2 bass 
V:1
 B2 =AB cB [Ge]2 | G2 AG BG [DF]2 | [EG]2 [E=A][EA] [DB]4 | [DB]2 [FA][=EG] [FA][DF] G2 | %4
w: S.~J.~Vail * * * * *||||
 c2 B=A BG [DF]2 |[M:9/8] G2 A ABB [Ec]3 |[M:4/4] [EB]2 [DA][DF] E4 |] %7
w: |||
V:2
 [E,G,E]2 [E,_G,E][E,=G,E] [E,A,E][E,G,E] [E,B,]2 | %1
 [E,B,E]2 [E,CE][E,B,E] [G,B,E][E,B,E] [B,,B,]2 | [E,B,]2 [C,F,][C,F,] [B,,F,]4 | %3
 [B,,F,]2 [B,,B,][B,,B,] [B,,B,][B,,B,] [E,B,E]2 | %4
 [E,A,E]2 [E,G,E][E,_G,E] [E,=G,E][E,B,E] [B,,B,]2 | %5
[M:9/8] [E,B,E]2 [F,B,D] [F,B,D][G,B,E][E,G,E] [A,,A,]3 |[M:4/4] [B,,G,]2 [B,,F,][B,,A,] [E,G,]4 |] %7

